status/24/notification-new-symbolic.svg

<?xml version="1.0" encoding="UTF-8" standalone="no"?>
<svg
   xmlns:dc="http://purl.org/dc/elements/1.1/"
   xmlns:cc="http://creativecommons.org/ns#"
   xmlns:rdf="http://www.w3.org/1999/02/22-rdf-syntax-ns#"
   xmlns:svg="http://www.w3.org/2000/svg"
   xmlns="http://www.w3.org/2000/svg"
   xmlns:sodipodi="http://sodipodi.sourceforge.net/DTD/sodipodi-0.dtd"
   xmlns:inkscape="http://www.inkscape.org/namespaces/inkscape"
   id="svg7384"
   height="24"
   width="24"
   version="1.1"
   inkscape:version="0.91 r13725"
   sodipodi:docname="notification-new-symbolic.svg">
  <sodipodi:namedview
     pagecolor="#ffffff"
     bordercolor="#666666"
     borderopacity="1"
     objecttolerance="10"
     gridtolerance="10"
     guidetolerance="10"
     inkscape:pageopacity="0"
     inkscape:pageshadow="2"
     inkscape:window-width="3200"
     inkscape:window-height="1674"
     id="namedview8"
     showgrid="true"
     inkscape:zoom="58.166667"
     inkscape:cx="12"
     inkscape:cy="12"
     inkscape:window-x="0"
     inkscape:window-y="60"
     inkscape:window-maximized="1"
     inkscape:current-layer="svg7384">
    <inkscape:grid
       type="xygrid"
       id="grid3336" />
  </sodipodi:namedview>
  <title
     id="title9167">elementary Symbolic Icon Theme</title>
  <metadata
     id="metadata90">
    <rdf:RDF>
      <cc:Work
         rdf:about="">
        <dc:format>image/svg+xml</dc:format>
        <dc:type
           rdf:resource="http://purl.org/dc/dcmitype/StillImage" />
        <dc:title>elementary Symbolic Icon Theme</dc:title>
      </cc:Work>
    </rdf:RDF>
  </metadata>
  <defs
     id="defs7386" />
  <path
     style="color:#bebebe;fill:#bebebe;fill-opacity:1;fill-rule:nonzero;stroke:none;stroke-width:1;marker:none;visibility:visible;display:inline;overflow:visible;enable-background:accumulate"
     d="M 12.509766 5.8222656 C 10.95004 6.0288385 9.5949479 7.1440163 9.15625 8.78125 C 9.15025 8.80185 9.1301 8.82315 9.125 8.84375 C 8.60602 10.78066 7.59623 14.6487 5.875 14.1875 C 5.76034 14.1568 5.6296 14.2412 5.59375 14.375 L 5.46875 14.84375 C 5.43295 14.97753 5.47905 15.12552 5.59375 15.15625 L 16.78125 18.125 C 16.89592 18.1557 17.02666 18.1025 17.0625 17.96875 L 17.1875 17.46875 C 17.2233 17.33497 17.1459 17.21823 17.03125 17.1875 C 15.3033 16.7245 16.3561 12.84281 16.875 10.90625 C 16.881 10.88585 16.87 10.86435 16.875 10.84375 C 16.906064 10.727818 16.915537 10.61219 16.935547 10.496094 A 4.5 4.5 0 0 1 12.5 6 A 4.5 4.5 0 0 1 12.509766 5.8222656 z M 11 17.625 C 11.0827 18.39646 11.95012 19 13 19 C 13.57062 19 14.07313 18.81873 14.4375 18.53125 L 11 17.625 z "
     id="rect3022" />
  <path
     class="error"
     d="m 20.000019,6 a 3,3 0 0 1 -6,0 3,3 0 1 1 6,0 z"
     id="path3009"
     style="color:#bebebe;clip-rule:nonzero;display:inline;overflow:visible;visibility:visible;opacity:1;isolation:auto;mix-blend-mode:normal;color-interpolation:sRGB;color-interpolation-filters:linearRGB;solid-color:#000000;solid-opacity:1;fill:#d33636;fill-opacity:1;fill-rule:nonzero;stroke:none;stroke-width:1.78124988;stroke-linecap:butt;stroke-linejoin:miter;stroke-miterlimit:4;stroke-dasharray:none;stroke-dashoffset:0;stroke-opacity:1;marker:none;color-rendering:auto;image-rendering:auto;shape-rendering:auto;text-rendering:auto;enable-background:new"
     inkscape:connector-curvature="0" />
</svg>

<?xml version="1.0" encoding="UTF-8" standalone="no"?>
<svg
   xmlns:dc="http://purl.org/dc/elements/1.1/"
   xmlns:cc="http://creativecommons.org/ns#"
   xmlns:rdf="http://www.w3.org/1999/02/22-rdf-syntax-ns#"
   xmlns:svg="http://www.w3.org/2000/svg"
   xmlns="http://www.w3.org/2000/svg"
   id="svg7384"
   height="24"
   width="24"
   version="1.1">
  <title
     id="title9167">elementary Symbolic Icon Theme</title>
  <metadata
     id="metadata90">
    <rdf:RDF>
      <cc:Work
         rdf:about="">
        <dc:format>image/svg+xml</dc:format>
        <dc:type
           rdf:resource="http://purl.org/dc/dcmitype/StillImage" />
        <dc:title>elementary Symbolic Icon Theme</dc:title>
      </cc:Work>
    </rdf:RDF>
  </metadata>
  <defs
     id="defs7386" />
  <path
     d="m 13.59377,5.125 c -0.25424,0.11867 -0.45328,0.33403 -0.53125,0.625 -0.003,0.0105 0.002,0.0208 0,0.0312 -1.78508,-0.0144 -3.41627,1.17138 -3.90625,3 -0.006,0.0206 -0.0261,0.0419 -0.0312,0.0625 -0.51898,1.93691 -1.52877,5.80495 -3.25,5.34375 -0.11466,-0.0307 -0.2454,0.0537 -0.28125,0.1875 l -0.125,0.46875 c -0.0358,0.13378 0.0103,0.28177 0.125,0.3125 l 11.1875,2.96875 c 0.11467,0.0307 0.24541,-0.0225 0.28125,-0.15625 l 0.125,-0.5 c 0.0358,-0.13378 -0.0416,-0.25052 -0.15625,-0.28125 -1.72795,-0.463 -0.67515,-4.34469 -0.15625,-6.28125 0.006,-0.0204 -0.005,-0.0419 0,-0.0625 0.12115,-0.45213 0.15537,-0.90892 0.125,-1.34375 -1.93948,0 -3.5,-1.56051 -3.5,-3.5 0,-0.29885 0.0235,-0.59799 0.0937,-0.875 z m -2.59375,12.5 c 0.0827,0.77146 0.95012,1.375 2,1.375 0.57062,0 1.07313,-0.18127 1.4375,-0.46875 L 11.00002,17.625 z"
     id="rect3022"
     style="color:#bebebe;fill:#bebebe;fill-opacity:1;fill-rule:nonzero;stroke:none;stroke-width:1;marker:none;visibility:visible;display:inline;overflow:visible;enable-background:accumulate" />
  <path
     class="error"
     d="m 19.00002,6 a 2,2 0 0 1 -4,0 2,2 0 1 1 4,0 z"
     id="path3009"
     style="color:#bebebe;fill:#d33636;fill-opacity:1;fill-rule:nonzero;stroke:none;stroke-width:1.78124988;marker:none;visibility:visible;display:inline;overflow:visible;enable-background:new;clip-rule:nonzero;opacity:1;isolation:auto;mix-blend-mode:normal;color-interpolation:sRGB;color-interpolation-filters:linearRGB;solid-color:#000000;solid-opacity:1;stroke-linecap:butt;stroke-linejoin:miter;stroke-miterlimit:4;stroke-dasharray:none;stroke-dashoffset:0;stroke-opacity:1;filter-blend-mode:normal;filter-gaussianBlur-deviation:0;color-rendering:auto;image-rendering:auto;shape-rendering:auto;text-rendering:auto" />
</svg>
